usr/share/icons/biglinux-icons-material/24/actions/xml-text-new.svg

<svg xmlns="http://www.w3.org/2000/svg" viewBox="0 0 24 24">
  <defs id="defs3051">
    <style type="text/css" id="current-color-scheme">
      .ColorScheme-Text {
        color:#363636;
      }
      </style>
  </defs>
 <path style="fill:currentColor;fill-opacity:1;stroke:none" 
     d="M 17 4 L 17 6 L 15 6 L 15 7 L 17 7 L 17 9 L 18 9 L 18 7 L 20 7 L 20 6 L 18 6 L 18 4 L 17 4 z M 8.9101562 6 L 5.5957031 15.59375 L 5.4726562 16 L 4 20 L 5.6582031 20 L 7.2832031 15.5625 L 12.716797 15.5625 L 14.341797 20 L 16 20 L 14.527344 16 L 14.404297 15.59375 L 11.089844 6 L 10.875 6 L 9.125 6 L 8.9101562 6 z M 10.015625 7.9375 L 12.195312 14.28125 L 7.8046875 14.28125 L 10.015625 7.9375 z "
     class="ColorScheme-Text"
     />
</svg>

<svg xmlns="http://www.w3.org/2000/svg" viewBox="0 0 24 24"><path d="M17 4v2h-2v1h2v2h1V7h2V6h-2V4h-1zM8.91 6l-3.314 9.594-.123.406L4 20h1.658l1.625-4.438h5.434L14.342 20H16l-1.473-4-.123-.406L11.09 6H8.91zm1.106 1.938 2.18 6.343H7.804l2.21-6.344z" style="fill:currentColor;fill-opacity:1;stroke:none;color:#dedede"/></svg>
